svgs/thin/briefcase-arrow-right.svg

<svg xmlns="http://www.w3.org/2000/svg" viewBox="0 0 512 512"><!--! Font Awesome Pro 6.3.0 by @fontawesome - https://fontawesome.com License - https://fontawesome.com/license (Commercial License) Copyright 2023 Fonticons, Inc. --><path d="M464 96H384V40C384 17.94 366.1 0 344 0h-176C145.9 0 128 17.94 128 40V96H48C21.49 96 0 117.5 0 144v288C0 458.5 21.49 480 48 480h416c26.51 0 48-21.49 48-48v-288C512 117.5 490.5 96 464 96zM144 40c0-13.22 10.78-24 24-24h176c13.22 0 24 10.78 24 24V96h-224V40zM496 432c0 17.64-14.36 32-32 32h-416c-17.64 0-32-14.36-32-32v-288c0-17.64 14.36-32 32-32h416c17.64 0 32 14.36 32 32V432zM279.3 194.3c-3.125-3.125-8.188-3.125-11.31 0s-3.125 8.188 0 11.31L342.3 280H150.4c-4.407 0-8 3.578-8 8s3.593 8 8 8h191.9l-74.34 74.34c-3.125 3.125-3.125 8.188 0 11.31C269.5 383.2 271.5 384 273.6 384s4.094-.7813 5.656-2.344l88-88c3.125-3.125 3.125-8.188 0-11.31L279.3 194.3z"/></svg>

<svg xmlns="http://www.w3.org/2000/svg" viewBox="0 0 512 512"><!-- Font Awesome Pro 6.0.0-alpha2 by @fontawesome - https://fontawesome.com License - https://fontawesome.com/license (Commercial License) --><path d="M464 96H384V40C384 17.938 366.062 0 344 0H168C145.938 0 128 17.938 128 40V96H48C21.492 96 0 117.49 0 144V432C0 458.51 21.492 480 48 480H464C490.508 480 512 458.51 512 432V144C512 117.49 490.508 96 464 96ZM144 40C144 26.781 154.781 16 168 16H344C357.219 16 368 26.781 368 40V96H144V40ZM496 432C496 449.645 481.645 464 464 464H48C30.355 464 16 449.645 16 432V144C16 126.355 30.355 112 48 112H464C481.645 112 496 126.355 496 144V432ZM279.25 194.344C276.125 191.219 271.062 191.219 267.938 194.344S264.813 202.531 267.938 205.656L342.281 280H150.406C146 280 142.406 283.578 142.406 288S146 296 150.406 296H342.281L267.938 370.344C264.813 373.469 264.813 378.531 267.938 381.656C269.5 383.219 271.531 384 273.594 384S277.688 383.219 279.25 381.656L367.25 293.656C370.375 290.531 370.375 285.469 367.25 282.344L279.25 194.344Z"/></svg>
